X: 1
T: The Killarney Boys Of Pleasure
R: reel
M: 4/4
L: 1/8
K: Emin
E2 F/E/D E2 FA|BFAF DEFA|B2 Bd e2 ed|BdAF DEFD|
E2 F/E/D E2 FA|BFAF DEFA|B2 Bd e2 ed|BdAF FEED:|
Beee Befe|BdAF DEFA|f2 fe f2 fe|dBAF DEFA
Beee Befe|BdAF DEFA|f2 fe defe|dBAF E3 z:|


Tune 733	Setting 27985

